content/assets/logo.svg

<svg fill="none" height="300" viewBox="0 0 300 300" width="300" xmlns="http://www.w3.org/2000/svg"><path d="m106.784 200v99.883l86.549-49.941z" fill="#1e1a18"/><path d="m193.45 250.175v-100l-86.549 49.942z" fill="#474442"/><path d="m280 200.117v-99.883l-86.55 49.941z" fill="#474442"/><path d="m193.333 149.941v100l86.55-49.941z" fill="#1e1a18"/><path d="m20 250.058 86.55 49.942v-99.883z" fill="#ff5151"/><path d="m106.784 200.117-86.5501-50.059v100z" fill="#fc2222"/><path d="m106.784 100.117-86.5501-49.9416v99.8826z" fill="#fc2222"/><path d="m20 150.058 86.55 50.059v-100z" fill="#ff5151"/><path d="m106.784 0-86.5501 49.9415 86.5501 49.9415z" fill="#00fec1"/><path d="m106.667 100.117 86.549-49.9416-86.549-49.941513z" fill="#00e0aa"/><path d="m193.216 150.058 86.55-49.941-86.55-49.9416z" fill="#00e0aa"/><path d="m193.333 49.9415-86.549 49.9415 86.549 50.059z" fill="#00fec1"/></svg>

<svg width="300" height="300" viewBox="0 0 300 300" fill="none" xmlns="http://www.w3.org/2000/svg">
<path d="M106.784 200V299.883L193.333 249.942L106.784 200Z" fill="#1E1A18"/>
<path d="M193.45 250.175V150.175L106.901 200.117L193.45 250.175Z" fill="#474442"/>
<path d="M280 200.117V100.234L193.45 150.175L280 200.117Z" fill="#474442"/>
<path d="M193.333 149.941V249.941L279.883 200L193.333 149.941Z" fill="#1E1A18"/>
<path d="M20 250.058L106.55 300V200.117L20 250.058Z" fill="#FF5151"/>
<path d="M106.784 200.117L20.2339 150.058V250.058L106.784 200.117Z" fill="#FC2222"/>
<path d="M106.784 100.117L20.2339 50.1754V150.058L106.784 100.117Z" fill="#FC2222"/>
<path d="M20 150.058L106.55 200.117V100.117L20 150.058Z" fill="#FF5151"/>
<path d="M106.784 0L20.2339 49.9415L106.784 99.883V0Z" fill="#00FEC1"/>
<path d="M106.667 100.117L193.216 50.1754L106.667 0.233887V100.117Z" fill="#00E0AA"/>
<path d="M193.216 150.058L279.766 100.117L193.216 50.1754V150.058Z" fill="#00E0AA"/>
<path d="M193.333 49.9415L106.784 99.883L193.333 149.942V49.9415Z" fill="#00FEC1"/>
</svg>
